packages/ui-icons/svg/Solid/rss-add.svg

<svg viewBox="0 0 1920 1920" version="1.1" xmlns="http://www.w3.org/2000/svg">
    <path d="M840 0v840H0v240h840v840h240v-840h840V840h-840V0z" stroke="none" stroke-width="1" fill-rule="evenodd"/>
</svg>

<svg viewBox="0 0 1920 1920" version="1.1" xmlns="http://www.w3.org/2000/svg">
    <path d="M840 0L840 840 0 840 0 1080 840 1080 840 1920 1080 1920 1080 1080 1920 1080 1920 840 1080 840 1080 0z" stroke="none" stroke-width="1" fill-rule="evenodd"/>
</svg>
